Newaita-dark/apps/16/deadbeef.svg

<svg height="16pt" viewBox="0 0 16 16" width="16pt" xmlns="http://www.w3.org/2000/svg" xmlns:xlink="http://www.w3.org/1999/xlink"><linearGradient id="a"><stop offset="0" stop-opacity=".313725"/><stop offset=".222222" stop-opacity=".27451"/><stop offset="1" stop-opacity="0"/></linearGradient><radialGradient id="b" cx="450.90894" cy="189.57936" gradientTransform="matrix(.00000009 -.0390662 -.0703192 -.00000005 16.638644 31.797667)" gradientUnits="userSpaceOnUse" r="21.166656" xlink:href="#a"/><radialGradient id="c" cx="450.90894" cy="189.57936" gradientTransform="matrix(-.00000009 .0390662 .0703192 .00000005 -9.692666 -3.763739)" gradientUnits="userSpaceOnUse" r="21.166656" xlink:href="#a"/><radialGradient id="d" cx="450.90894" cy="189.57936" gradientTransform="matrix(-.00000009 -.0390662 .0703192 -.00000005 -9.692666 31.797667)" gradientUnits="userSpaceOnUse" r="21.166656" xlink:href="#a"/><radialGradient id="e" cx="450.90894" cy="189.57936" gradientTransform="matrix(.00000009 .0390662 -.0703192 .00000005 16.638643 -3.76374)" gradientUnits="userSpaceOnUse" r="21.166656" xlink:href="#a"/><linearGradient id="f" gradientUnits="userSpaceOnUse" x1="7.938262" x2="7.938262" y1="14.0169675" y2="1.44805256249"><stop offset="0" stop-color="#424242"/><stop offset="1" stop-color="#616161"/></linearGradient><linearGradient id="g" gradientUnits="userSpaceOnUse" x1="6.6152158" x2="6.6152158" y1="4.42490227126" y2="11.04011909816"><stop offset="0" stop-color="#9ccc65"/><stop offset="1" stop-color="#aed581"/></linearGradient><path d="m3.472656 14.015625h1.324219v-.660156h-1.324219zm0 0" fill="url(#b)"/><path d="m3.472656 14.015625h-1.324218v.664063h1.324218zm0 0" fill="url(#c)"/><path d="m3.472656 14.015625h-1.324218v-.660156h1.324218zm0 0" fill="url(#d)"/><path d="m3.472656 14.015625h1.324219v.664063h-1.324219zm0 0" fill="url(#e)"/><path d="m3.640625 1.449219c-.042969 0-.085937 0-.128906.007812-.007813 0-.015625 0-.019531 0-.003907.003907-.007813.003907-.011719.003907-.003907 0-.007813 0-.011719 0-.429688.074218-.761719.421874-.816406.859374v.019532c-.003906.042968-.007813.082031-.007813.125v10.558594.007812c-.003906.175781.039063.355469.136719.523438.273438.476562.878906.636718 1.355469.363281l9.164062-5.292969c.324219-.1875.503907-.527344.496094-.875.007813-.347656-.171875-.6875-.496094-.875l-9.125-5.269531c-.109375-.070313-.234375-.121094-.367187-.144531-.007813 0-.015625 0-.019532 0-.050781-.007813-.097656-.011719-.148437-.011719zm0 0" fill="url(#f)"/><path d="m3.640625 1.449219c-.042969 0-.085937 0-.128906.007812-.007813 0-.015625 0-.019531 0-.003907.003907-.007813.003907-.011719.003907-.003907 0-.007813 0-.011719 0-.429688.074218-.761719.421874-.816406.859374v.019532c-.003906.042968-.007813.082031-.007813.125v.125c.003907-.027344.003907-.058594.007813-.085938 0-.003906 0-.011718 0-.019531.054687-.4375.386718-.785156.816406-.855469.003906 0 .007812-.003906.011719-.003906h.011719c.003906 0 .011718-.003906.019531-.003906.042969-.003906.085937-.007813.128906-.007813.050781 0 .097656.003907.148437.011719.003907 0 .011719.003906.019532.003906.132812.023438.257812.070313.367187.140625l9.125 5.269531c.300781.171876.472657.472657.496094.792969 0-.027343 0-.054687 0-.082031.007813-.347656-.171875-.6875-.496094-.875l-9.125-5.269531c-.109375-.070313-.234375-.121094-.367187-.144531-.007813 0-.015625 0-.019532 0-.050781-.007813-.097656-.011719-.148437-.011719zm-.996094 11.589843v.035157zm0 0" fill="#fff" fill-opacity=".392157"/><path d="m2.644531 2.421875v.042969zm11.144531 5.179687c-.039062.292969-.210937.5625-.488281.722657l-9.164062 5.292969c-.476563.277343-1.082031.113281-1.355469-.363282-.089844-.152344-.132812-.316406-.136719-.480468v.25.007812c-.003906.175781.039063.355469.136719.523438.273438.476562.878906.636718 1.355469.363281l9.164062-5.292969c.324219-.1875.503907-.527344.496094-.875.003906-.050781 0-.101562-.007813-.148438zm-11.144531 5.125v.015626c0-.003907 0-.007813 0-.007813 0-.003906 0-.007813 0-.007813zm0 0" fill-opacity=".235294"/><path d="m3.640625 1.402344c-.042969 0-.089844 0-.136719.007812-.003906 0-.011718 0-.019531.003906-.003906 0-.007813 0-.011719 0s-.007812 0-.007812 0c-.453125.078126-.800782.441407-.859375.898438v.023438c-.003907.042968-.007813.085937-.007813.128906v10.558594.007812c-.003906.183594.042969.371094.140625.546875.289063.496094.921875.667969 1.421875.378906l9.164063-5.292969c.339843-.195312.527343-.550781.519531-.914062.007812-.367188-.179688-.722656-.519531-.917969l-9.125-5.265625c-.113281-.074218-.242188-.125-.382813-.148437-.007812-.003907-.015625-.003907-.023437-.003907-.050781-.007812-.101563-.011718-.152344-.011718zm0 .09375c.046875 0 .09375.003906.140625.007812.007812.003906.011719.003906.019531.003906.125.023438.246094.070313.347657.136719l9.128906 5.269531c.308594.179688.480468.503907.472656.835938.007812.332031-.164062.65625-.472656.832031l-9.164063 5.292969c-.457031.261719-1.03125.109375-1.292969-.34375-.089843-.160156-.132812-.332031-.128906-.5 0-.003906 0-.003906 0-.007812v-10.558594c0-.042969.003906-.082032.007813-.121094 0-.007812 0-.011719 0-.019531.050781-.414063.371093-.746094.777343-.816407h.003907.007812c.003907 0 .007813-.003906.007813-.003906h.023437c.039063-.007812.082031-.007812.121094-.007812zm0 0" fill="#212121"/><path d="m5.128906 4.421875c-.003906 0-.007812 0-.011718 0-.113282.003906-.21875.0625-.28125.164063-.035157.066406-.050782.140624-.039063.210937v2.546875c-.015625.070312-.003906.148438.035156.21875l.011719.015625c.074219.132813.234375.1875.378906.144531.035156-.011718.070313-.027344.101563-.050781l2.097656-1.210937 2.203125 1.273437-4.667969 2.691406c-.15625.089844-.210937.292969-.121093.453125.09375.15625.292968.210938.453124.121094l5.15625-2.976562c.105469-.0625.167969-.175782.164063-.289063.003906-.117187-.058594-.230469-.164063-.292969l-5.121093-2.957031c-.035157-.023437-.070313-.039063-.109375-.050781-.027344-.007813-.058594-.011719-.085938-.011719zm0 0" fill="url(#g)"/><path d="m5.128906 4.421875c-.003906 0-.007812 0-.011718 0-.113282.003906-.21875.0625-.28125.164063-.035157.066406-.050782.140624-.039063.210937v.097656c.003906-.039062.019531-.082031.039063-.121093.0625-.101563.167968-.160157.28125-.164063h.011718c.027344 0 .058594.003906.085938.011719.039062.011718.074218.027344.109375.050781l5.121093 2.957031c.078126.046875.128907.117188.152344.199219.007813-.03125.011719-.0625.011719-.09375.003906-.117187-.058594-.230469-.164063-.292969l-5.121093-2.957031c-.035157-.023437-.070313-.039063-.109375-.050781-.027344-.007813-.058594-.011719-.085938-.011719zm-.332031 2.921875c-.007813.039062-.007813.082031 0 .121094zm4.664063.484375-4.503907 2.597656c-.132812.078125-.191406.238281-.152343.378907.023437-.078126.078124-.148438.152343-.191407l4.667969-2.691406zm0 0" fill="#fff" fill-opacity=".392157"/><path d="m4.796875 4.988281c-.003906.027344-.003906.058594 0 .089844zm2.625 1.472657-2.097656 1.210937c-.03125.023437-.066407.039063-.101563.050781-.144531.042969-.304687-.011718-.378906-.144531l-.011719-.015625c-.019531-.03125-.03125-.066406-.035156-.097656v.15625c-.015625.074218-.003906.152344.035156.21875l.011719.019531c.074219.132813.234375.1875.378906.140625.035156-.007812.070313-.027344.101563-.046875l2.097656-1.214844 1.960937 1.132813.242188-.136719zm3.160156 1.410156c-.027343.0625-.074219.113281-.136719.152344l-5.15625 2.976562c-.160156.089844-.359374.035156-.453124-.121094-.003907-.007812-.007813-.019531-.011719-.027344-.042969.09375-.042969.207032.011719.304688.09375.160156.292968.214844.453124.121094l5.15625-2.976563c.105469-.0625.167969-.171875.164063-.289062 0-.046875-.007813-.09375-.027344-.140625zm0 0" fill-opacity=".235294"/><path d="m164.109328-73.513511c-.124988 0-.249976 0-.374964 0-3.624654.124988-6.999331 1.999809-8.99914 5.249498-1.124893 2.124798-1.624845 4.499571-1.249881 6.749356v81.492218c-.499952 2.249785-.124988 4.749546 1.124892 6.999331l.374965.499953c2.374773 4.249594 7.499284 5.999427 12.123842 4.624558 1.124892-.374964 2.249785-.874916 3.24969-1.624845l67.11859-38.7463 70.493268 40.746109-149.360736 86.116776c-4.999523 2.874726-6.749356 9.374105-3.87463 14.498616 2.999713 4.999522 9.374104 6.749355 14.498615 3.87463l164.984245-95.240905c3.374678-1.999809 5.374487-5.624463 5.249498-9.249117.124989-3.749642-1.87482-7.374296-5.249498-9.374105l-163.859352-94.615964c-1.124893-.749929-2.249786-1.249881-3.499666-1.624845-.874917-.249976-1.874821-.374964-2.749738-.374964zm0 0" fill="none" stroke="#212121" stroke-linecap="round" stroke-linejoin="round" stroke-width="3" transform="matrix(.031253 0 0 .031253 0 6.719392)"/></svg>

<?xml version="1.0" encoding="UTF-8"?>
<svg xmlns="http://www.w3.org/2000/svg" xmlns:xlink="http://www.w3.org/1999/xlink" width="16pt" height="16pt" viewBox="0 0 16 16" version="1.1">
<defs>
<radialGradient id="radial0" gradientUnits="userSpaceOnUse" cx="450.90894" cy="189.57936" fx="450.90894" fy="189.57936" r="21.166656" gradientTransform="matrix(0.0000000870852,-0.0390662,-0.0703192,-0.0000000507693,16.638644,31.797667)">
<stop offset="0" style="stop-color:rgb(0%,0%,0%);stop-opacity:0.313725;"/>
<stop offset="0.222222" style="stop-color:rgb(0%,0%,0%);stop-opacity:0.27451;"/>
<stop offset="1" style="stop-color:rgb(0%,0%,0%);stop-opacity:0;"/>
</radialGradient>
<radialGradient id="radial1" gradientUnits="userSpaceOnUse" cx="450.90894" cy="189.57936" fx="450.90894" fy="189.57936" r="21.166656" gradientTransform="matrix(-0.0000000870852,0.0390662,0.0703192,0.0000000507693,-9.692666,-3.763739)">
<stop offset="0" style="stop-color:rgb(0%,0%,0%);stop-opacity:0.313725;"/>
<stop offset="0.222222" style="stop-color:rgb(0%,0%,0%);stop-opacity:0.27451;"/>
<stop offset="1" style="stop-color:rgb(0%,0%,0%);stop-opacity:0;"/>
</radialGradient>
<radialGradient id="radial2" gradientUnits="userSpaceOnUse" cx="450.90894" cy="189.57936" fx="450.90894" fy="189.57936" r="21.166656" gradientTransform="matrix(-0.0000000870852,-0.0390662,0.0703192,-0.0000000507693,-9.692666,31.797667)">
<stop offset="0" style="stop-color:rgb(0%,0%,0%);stop-opacity:0.313725;"/>
<stop offset="0.222222" style="stop-color:rgb(0%,0%,0%);stop-opacity:0.27451;"/>
<stop offset="1" style="stop-color:rgb(0%,0%,0%);stop-opacity:0;"/>
</radialGradient>
<radialGradient id="radial3" gradientUnits="userSpaceOnUse" cx="450.90894" cy="189.57936" fx="450.90894" fy="189.57936" r="21.166656" gradientTransform="matrix(0.0000000870852,0.0390662,-0.0703192,0.0000000507693,16.638643,-3.76374)">
<stop offset="0" style="stop-color:rgb(0%,0%,0%);stop-opacity:0.313725;"/>
<stop offset="0.222222" style="stop-color:rgb(0%,0%,0%);stop-opacity:0.27451;"/>
<stop offset="1" style="stop-color:rgb(0%,0%,0%);stop-opacity:0;"/>
</radialGradient>
<linearGradient id="linear0" gradientUnits="userSpaceOnUse" x1="254" y1="233.5" x2="254" y2="-168.66667" gradientTransform="matrix(0.031253,0,0,0.031253,0,6.719392)">
<stop offset="0" style="stop-color:rgb(25.882353%,25.882353%,25.882353%);stop-opacity:1;"/>
<stop offset="1" style="stop-color:rgb(38.039216%,38.039216%,38.039216%);stop-opacity:1;"/>
</linearGradient>
<linearGradient id="linear1" gradientUnits="userSpaceOnUse" x1="740" y1="535.1181" x2="740" y2="1335.1182" gradientTransform="matrix(0.00826902,0,0,0.00826902,0.496141,0)">
<stop offset="0" style="stop-color:rgb(61.176471%,80%,39.607843%);stop-opacity:1;"/>
<stop offset="1" style="stop-color:rgb(68.235294%,83.529412%,50.588235%);stop-opacity:1;"/>
</linearGradient>
</defs>
<g id="surface1">
<path style=" stroke:none;fill-rule:nonzero;fill:url(#radial0);" d="M 3.472656 14.015625 L 4.796875 14.015625 L 4.796875 13.355469 L 3.472656 13.355469 Z M 3.472656 14.015625 "/>
<path style=" stroke:none;fill-rule:nonzero;fill:url(#radial1);" d="M 3.472656 14.015625 L 2.148438 14.015625 L 2.148438 14.679688 L 3.472656 14.679688 Z M 3.472656 14.015625 "/>
<path style=" stroke:none;fill-rule:nonzero;fill:url(#radial2);" d="M 3.472656 14.015625 L 2.148438 14.015625 L 2.148438 13.355469 L 3.472656 13.355469 Z M 3.472656 14.015625 "/>
<path style=" stroke:none;fill-rule:nonzero;fill:url(#radial3);" d="M 3.472656 14.015625 L 4.796875 14.015625 L 4.796875 14.679688 L 3.472656 14.679688 Z M 3.472656 14.015625 "/>
<path style=" stroke:none;fill-rule:nonzero;fill:url(#linear0);" d="M 3.640625 1.449219 C 3.597656 1.449219 3.554688 1.449219 3.511719 1.457031 C 3.503906 1.457031 3.496094 1.457031 3.492188 1.457031 C 3.488281 1.460938 3.484375 1.460938 3.480469 1.460938 C 3.476562 1.460938 3.472656 1.460938 3.46875 1.460938 C 3.039062 1.535156 2.707031 1.882812 2.652344 2.320312 C 2.652344 2.324219 2.652344 2.332031 2.652344 2.339844 C 2.648438 2.382812 2.644531 2.421875 2.644531 2.464844 L 2.644531 13.023438 C 2.644531 13.027344 2.644531 13.027344 2.644531 13.03125 C 2.640625 13.207031 2.683594 13.386719 2.78125 13.554688 C 3.054688 14.03125 3.660156 14.191406 4.136719 13.917969 L 13.300781 8.625 C 13.625 8.4375 13.804688 8.097656 13.796875 7.75 C 13.804688 7.402344 13.625 7.0625 13.300781 6.875 L 4.175781 1.605469 C 4.066406 1.535156 3.941406 1.484375 3.808594 1.460938 C 3.800781 1.460938 3.792969 1.460938 3.789062 1.460938 C 3.738281 1.453125 3.691406 1.449219 3.640625 1.449219 Z M 3.640625 1.449219 "/>
<path style=" stroke:none;fill-rule:nonzero;fill:rgb(100%,100%,100%);fill-opacity:0.392157;" d="M 3.640625 1.449219 C 3.597656 1.449219 3.554688 1.449219 3.511719 1.457031 C 3.503906 1.457031 3.496094 1.457031 3.492188 1.457031 C 3.488281 1.460938 3.484375 1.460938 3.480469 1.460938 C 3.476562 1.460938 3.472656 1.460938 3.46875 1.460938 C 3.039062 1.535156 2.707031 1.882812 2.652344 2.320312 C 2.652344 2.324219 2.652344 2.332031 2.652344 2.339844 C 2.648438 2.382812 2.644531 2.421875 2.644531 2.464844 L 2.644531 2.589844 C 2.648438 2.5625 2.648438 2.53125 2.652344 2.503906 C 2.652344 2.5 2.652344 2.492188 2.652344 2.484375 C 2.707031 2.046875 3.039062 1.699219 3.46875 1.628906 C 3.472656 1.628906 3.476562 1.625 3.480469 1.625 C 3.484375 1.625 3.488281 1.625 3.492188 1.625 C 3.496094 1.625 3.503906 1.621094 3.511719 1.621094 C 3.554688 1.617188 3.597656 1.613281 3.640625 1.613281 C 3.691406 1.613281 3.738281 1.617188 3.789062 1.625 C 3.792969 1.625 3.800781 1.628906 3.808594 1.628906 C 3.941406 1.652344 4.066406 1.699219 4.175781 1.769531 L 13.300781 7.039062 C 13.601562 7.210938 13.773438 7.511719 13.796875 7.832031 C 13.796875 7.804688 13.796875 7.777344 13.796875 7.75 C 13.804688 7.402344 13.625 7.0625 13.300781 6.875 L 4.175781 1.605469 C 4.066406 1.535156 3.941406 1.484375 3.808594 1.460938 C 3.800781 1.460938 3.792969 1.460938 3.789062 1.460938 C 3.738281 1.453125 3.691406 1.449219 3.640625 1.449219 Z M 2.644531 13.039062 C 2.644531 13.050781 2.644531 13.0625 2.644531 13.074219 Z M 2.644531 13.039062 "/>
<path style=" stroke:none;fill-rule:nonzero;fill:rgb(0%,0%,0%);fill-opacity:0.235294;" d="M 2.644531 2.421875 C 2.644531 2.4375 2.644531 2.449219 2.644531 2.464844 Z M 13.789062 7.601562 C 13.75 7.894531 13.578125 8.164062 13.300781 8.324219 L 4.136719 13.617188 C 3.660156 13.894531 3.054688 13.730469 2.78125 13.253906 C 2.691406 13.101562 2.648438 12.9375 2.644531 12.773438 L 2.644531 13.023438 C 2.644531 13.027344 2.644531 13.027344 2.644531 13.03125 C 2.640625 13.207031 2.683594 13.386719 2.78125 13.554688 C 3.054688 14.03125 3.660156 14.191406 4.136719 13.917969 L 13.300781 8.625 C 13.625 8.4375 13.804688 8.097656 13.796875 7.75 C 13.800781 7.699219 13.796875 7.648438 13.789062 7.601562 Z M 2.644531 12.726562 L 2.644531 12.742188 C 2.644531 12.738281 2.644531 12.734375 2.644531 12.734375 C 2.644531 12.730469 2.644531 12.726562 2.644531 12.726562 Z M 2.644531 12.726562 "/>
<path style=" stroke:none;fill-rule:nonzero;fill:rgb(12.941176%,12.941176%,12.941176%);fill-opacity:1;" d="M 3.640625 1.402344 C 3.597656 1.402344 3.550781 1.402344 3.503906 1.410156 C 3.5 1.410156 3.492188 1.410156 3.484375 1.414062 C 3.480469 1.414062 3.476562 1.414062 3.472656 1.414062 C 3.46875 1.414062 3.464844 1.414062 3.464844 1.414062 C 3.011719 1.492188 2.664062 1.855469 2.605469 2.3125 C 2.605469 2.320312 2.605469 2.328125 2.605469 2.335938 C 2.601562 2.378906 2.597656 2.421875 2.597656 2.464844 L 2.597656 13.023438 C 2.597656 13.027344 2.597656 13.027344 2.597656 13.03125 C 2.59375 13.214844 2.640625 13.402344 2.738281 13.578125 C 3.027344 14.074219 3.660156 14.246094 4.160156 13.957031 L 13.324219 8.664062 C 13.664062 8.46875 13.851562 8.113281 13.84375 7.75 C 13.851562 7.382812 13.664062 7.027344 13.324219 6.832031 L 4.199219 1.566406 C 4.085938 1.492188 3.957031 1.441406 3.816406 1.417969 C 3.808594 1.414062 3.800781 1.414062 3.792969 1.414062 C 3.742188 1.40625 3.691406 1.402344 3.640625 1.402344 Z M 3.640625 1.496094 C 3.6875 1.496094 3.734375 1.5 3.78125 1.503906 C 3.789062 1.507812 3.792969 1.507812 3.800781 1.507812 C 3.925781 1.53125 4.046875 1.578125 4.148438 1.644531 L 13.277344 6.914062 C 13.585938 7.09375 13.757812 7.417969 13.75 7.75 C 13.757812 8.082031 13.585938 8.40625 13.277344 8.582031 L 4.113281 13.875 C 3.65625 14.136719 3.082031 13.984375 2.820312 13.53125 C 2.730469 13.371094 2.6875 13.199219 2.691406 13.03125 C 2.691406 13.027344 2.691406 13.027344 2.691406 13.023438 L 2.691406 2.464844 C 2.691406 2.421875 2.695312 2.382812 2.699219 2.34375 C 2.699219 2.335938 2.699219 2.332031 2.699219 2.324219 C 2.75 1.910156 3.070312 1.578125 3.476562 1.507812 L 3.480469 1.507812 C 3.480469 1.507812 3.484375 1.507812 3.488281 1.507812 C 3.492188 1.507812 3.496094 1.503906 3.496094 1.503906 C 3.503906 1.503906 3.511719 1.503906 3.519531 1.503906 C 3.558594 1.496094 3.601562 1.496094 3.640625 1.496094 Z M 3.640625 1.496094 "/>
<path style=" stroke:none;fill-rule:nonzero;fill:url(#linear1);" d="M 5.128906 4.421875 C 5.125 4.421875 5.121094 4.421875 5.117188 4.421875 C 5.003906 4.425781 4.898438 4.484375 4.835938 4.585938 C 4.800781 4.652344 4.785156 4.726562 4.796875 4.796875 L 4.796875 7.34375 C 4.78125 7.414062 4.792969 7.492188 4.832031 7.5625 L 4.84375 7.578125 C 4.917969 7.710938 5.078125 7.765625 5.222656 7.722656 C 5.257812 7.710938 5.292969 7.695312 5.324219 7.671875 L 7.421875 6.460938 L 9.625 7.734375 L 4.957031 10.425781 C 4.800781 10.515625 4.746094 10.71875 4.835938 10.878906 C 4.929688 11.035156 5.128906 11.089844 5.289062 11 L 10.445312 8.023438 C 10.550781 7.960938 10.613281 7.847656 10.609375 7.734375 C 10.613281 7.617188 10.550781 7.503906 10.445312 7.441406 L 5.324219 4.484375 C 5.289062 4.460938 5.253906 4.445312 5.214844 4.433594 C 5.1875 4.425781 5.15625 4.421875 5.128906 4.421875 Z M 5.128906 4.421875 "/>
<path style=" stroke:none;fill-rule:nonzero;fill:rgb(100%,100%,100%);fill-opacity:0.392157;" d="M 5.128906 4.421875 C 5.125 4.421875 5.121094 4.421875 5.117188 4.421875 C 5.003906 4.425781 4.898438 4.484375 4.835938 4.585938 C 4.800781 4.652344 4.785156 4.726562 4.796875 4.796875 L 4.796875 4.894531 C 4.800781 4.855469 4.816406 4.8125 4.835938 4.773438 C 4.898438 4.671875 5.003906 4.613281 5.117188 4.609375 C 5.121094 4.609375 5.125 4.609375 5.128906 4.609375 C 5.15625 4.609375 5.1875 4.613281 5.214844 4.621094 C 5.253906 4.632812 5.289062 4.648438 5.324219 4.671875 L 10.445312 7.628906 C 10.523438 7.675781 10.574219 7.746094 10.597656 7.828125 C 10.605469 7.796875 10.609375 7.765625 10.609375 7.734375 C 10.613281 7.617188 10.550781 7.503906 10.445312 7.441406 L 5.324219 4.484375 C 5.289062 4.460938 5.253906 4.445312 5.214844 4.433594 C 5.1875 4.425781 5.15625 4.421875 5.128906 4.421875 Z M 4.796875 7.34375 C 4.789062 7.382812 4.789062 7.425781 4.796875 7.464844 Z M 9.460938 7.828125 L 4.957031 10.425781 C 4.824219 10.503906 4.765625 10.664062 4.804688 10.804688 C 4.828125 10.726562 4.882812 10.65625 4.957031 10.613281 L 9.625 7.921875 Z M 9.460938 7.828125 "/>
<path style=" stroke:none;fill-rule:nonzero;fill:rgb(0%,0%,0%);fill-opacity:0.235294;" d="M 4.796875 4.988281 C 4.792969 5.015625 4.792969 5.046875 4.796875 5.078125 Z M 7.421875 6.460938 L 5.324219 7.671875 C 5.292969 7.695312 5.257812 7.710938 5.222656 7.722656 C 5.078125 7.765625 4.917969 7.710938 4.84375 7.578125 L 4.832031 7.5625 C 4.8125 7.53125 4.800781 7.496094 4.796875 7.464844 L 4.796875 7.621094 C 4.78125 7.695312 4.792969 7.773438 4.832031 7.839844 L 4.84375 7.859375 C 4.917969 7.992188 5.078125 8.046875 5.222656 8 C 5.257812 7.992188 5.292969 7.972656 5.324219 7.953125 L 7.421875 6.738281 L 9.382812 7.871094 L 9.625 7.734375 Z M 10.582031 7.871094 C 10.554688 7.933594 10.507812 7.984375 10.445312 8.023438 L 5.289062 11 C 5.128906 11.089844 4.929688 11.035156 4.835938 10.878906 C 4.832031 10.871094 4.828125 10.859375 4.824219 10.851562 C 4.78125 10.945312 4.78125 11.058594 4.835938 11.15625 C 4.929688 11.316406 5.128906 11.371094 5.289062 11.277344 L 10.445312 8.300781 C 10.550781 8.238281 10.613281 8.128906 10.609375 8.011719 C 10.609375 7.964844 10.601562 7.917969 10.582031 7.871094 Z M 10.582031 7.871094 "/>
<path style="fill:none;stroke-width:3;stroke-linecap:round;stroke-linejoin:round;stroke:rgb(12.941176%,12.941176%,12.941176%);stroke-opacity:1;stroke-miterlimit:4;" d="M 164.109328 -73.513511 C 163.98434 -73.513511 163.859352 -73.513511 163.734364 -73.513511 C 160.10971 -73.388523 156.735033 -71.513702 154.735224 -68.264013 C 153.610331 -66.139215 153.110379 -63.764442 153.485343 -61.514657 L 153.485343 19.977561 C 152.985391 22.227346 153.360355 24.727107 154.610235 26.976892 L 154.9852 27.476845 C 157.359973 31.726439 162.484484 33.476272 167.109042 32.101403 C 168.233934 31.726439 169.358827 31.226487 170.358732 30.476558 L 237.477322 -8.269742 L 307.97059 32.476367 L 158.609854 118.593143 C 153.610331 121.467869 151.860498 127.967248 154.735224 133.091759 C 157.734937 138.091281 164.109328 139.841114 169.233839 136.966389 L 334.218084 41.725484 C 337.592762 39.725675 339.592571 36.101021 339.467582 32.476367 C 339.592571 28.726725 337.592762 25.102071 334.218084 23.102262 L 170.358732 -71.513702 C 169.233839 -72.263631 168.108946 -72.763583 166.859066 -73.138547 C 165.984149 -73.388523 164.984245 -73.513511 164.109328 -73.513511 Z M 164.109328 -73.513511 " transform="matrix(0.031253,0,0,0.031253,0,6.719392)"/>
</g>
</svg>
